(split-by-tool-safe-start)
G90 G94
G17
G21
(T1 D=6 CR=0 - ZMIN=-4 - flat end mill)
(T2 D=3 CR=0 - ZMIN=-11 - flat end mill)

(FluidNC config: arc_tol=0.002mm junc_dev=0.01mm min_seg=0.1mm)
(Ensure firmware arc_tolerance_mm and junction_deviation_mm match these values)
G54
G53 G0 Z0
(01_rough_pocket_t1)
G53 G0 Z0
T1
S5000 M3
G4 P3.
G17 G90 G94
G54
G53 G0 Z0
G90 G0 X42.264 Y27.091
Z15
G0 Z5
G1 Z3.1 F333.3
X42.289 Y27.103 Z2.918
X42.361 Y27.141 Z2.754
G3 X42.472 Y27.205 Z2.622 I-1.361 J2.504
X42.608 Y27.292 Z2.534 I-1.472 J2.44
X42.753 Y27.398 Z2.5 I-1.608 J2.353
X39.247 Y31.892 Z2.187 I-1.753 J2.247
X42.753 Y27.398 Z1.875 I1.753 J-2.247
X39.247 Y31.892 Z1.562 I-1.753 J2.247
X42.753 Y27.398 Z1.249 I1.753 J-2.247
X39.247 Y31.892 Z0.937 I-1.753 J2.247
X42.753 Y27.398 Z0.624 I1.753 J-2.247
X39.247 Y31.892 Z0.311 I-1.753 J2.247
X42.753 Y27.398 Z-0.001 I1.753 J-2.247
X39.247 Y31.892 Z-0.314 I-1.753 J2.247
X42.753 Y27.398 Z-0.627 I1.753 J-2.247
X39.247 Y31.892 Z-0.939 I-1.753 J2.247
X42.753 Y27.398 Z-1.252 I1.753 J-2.247
X39.247 Y31.892 Z-1.565 I-1.753 J2.247
X42.753 Y27.398 Z-1.877 I1.753 J-2.247
X39.247 Y31.892 Z-2.19 I-1.753 J2.247
X42.753 Y27.398 Z-2.503 I1.753 J-2.247
X39.247 Y31.892 Z-2.815 I-1.753 J2.247
X42.753 Y27.398 Z-3.128 I1.753 J-2.247
X39.247 Y31.892 Z-3.441 I-1.753 J2.247
X42.753 Y27.398 Z-3.753 I1.753 J-2.247
X41 Y32.495 Z-4 I-1.753 J2.247
G1 X39.824 F1000
G3 X39.505 Y32.176 I0 J-0.319
G1 Y29.824
G3 X39.824 Y29.505 I0.319 J0
G1 X62.176
G3 X62.495 Y29.824 I0 J0.319
G1 Y32.176
G3 X62.176 Y32.495 I-0.319 J0
G1 X41
G2 X38.603 Y33.771 I0 J2.89
G3 X36.005 Y32.978 I-1.178 J-0.793
G1 Y26.324
G3 X36.324 Y26.005 I0.319 J0
G1 X65.676
G3 X65.995 Y26.324 I0 J0.319
G1 Y35.676
G3 X65.676 Y35.995 I-0.319 J0
G1 X36.324
G3 X36.005 Y35.676 I0 J-0.319
G1 Y32.978
G2 X34.255 Y30.353 I-2.844 J0
G3 X32.505 Y27.728 I1.094 J-2.625
G1 Y22.824
G3 X32.824 Y22.505 I0.319 J0
G1 X69.176
G3 X69.495 Y22.824 I0 J0.319
G1 Y39.176
G3 X69.176 Y39.495 I-0.319 J0
G1 X32.824
G3 X32.505 Y39.176 I0 J-0.319
G1 Y27.728
G2 X30.753 Y25.099 I-2.848 J0
G3 X29 Y22.47 I1.095 J-2.629
G1 Y19
X73
Y43
X29
Y22.47
G3 X29.034 Y22.289 Z-3.971 I0.585 J0.015
X29.112 Y22.141 Z-3.885 I0.551 J0.197
X29.201 Y22.044 Z-3.753 I0.473 J0.344
G1 X29.269 Y21.993 Z-3.585
X29.294 Y21.978 Z-3.4
G0 Z15
G90 G94 G21 G17
M5

G53 G0 Z0
G53 G0 X0 Y0
M5
M30
