(split-by-tool)
G90 G94
G17
G21
(T1 D=6 CR=0 - ZMIN=-4 - flat end mill)
(T2 D=3 CR=0 - ZMIN=-11 - flat end mill)

(FluidNC config: arc_tol=0.002mm junc_dev=0.01mm min_seg=0.1mm)
(Ensure firmware arc_tolerance_mm and junction_deviation_mm match these values)
G54
G53 G0 Z0
(02_bore_12mm_t2)
T2
(CHANGE TO T2)
S8000 M3
G4 P3.
G17 G90 G94
G54
G53 G0 Z0
G90 G0 X86.6 Y18.7
Z15
G0 Z1
G1 Z-0.7 F1206
G18 G2 X86.9 Z-1 I0.3 K0
G1 X87.05
G17 G3 X87.35 Y19 I0 J0.3
X78.65 Y19 Z-1.204 I-4.35 J0
X87.35 Y19 Z-1.409 I4.35 J0
X78.65 Y19 Z-1.613 I-4.35 J0
X87.35 Y19 Z-1.817 I4.35 J0
X78.65 Y19 Z-2.021 I-4.35 J0
X87.35 Y19 Z-2.226 I4.35 J0
X78.65 Y19 Z-2.43 I-4.35 J0
X87.35 Y19 Z-2.634 I4.35 J0
X78.65 Y19 Z-2.839 I-4.35 J0
X87.35 Y19 Z-3.043 I4.35 J0
X78.65 Y19 Z-3.247 I-4.35 J0
X87.35 Y19 Z-3.451 I4.35 J0
X78.65 Y19 Z-3.656 I-4.35 J0
X87.35 Y19 Z-3.86 I4.35 J0
X78.65 Y19 Z-4.064 I-4.35 J0
X87.35 Y19 Z-4.269 I4.35 J0
X78.65 Y19 Z-4.473 I-4.35 J0
X87.35 Y19 Z-4.677 I4.35 J0
X78.65 Y19 Z-4.881 I-4.35 J0
X87.35 Y19 Z-5.086 I4.35 J0
X78.65 Y19 Z-5.29 I-4.35 J0
X87.35 Y19 Z-5.494 I4.35 J0
X78.65 Y19 Z-5.699 I-4.35 J0
X87.35 Y19 Z-5.903 I4.35 J0
X78.65 Y19 Z-6.107 I-4.35 J0
X87.35 Y19 Z-6.311 I4.35 J0
X78.65 Y19 Z-6.516 I-4.35 J0
X87.35 Y19 Z-6.72 I4.35 J0
X78.65 Y19 Z-6.924 I-4.35 J0
X87.35 Y19 Z-7.129 I4.35 J0
X78.65 Y19 Z-7.333 I-4.35 J0
X87.35 Y19 Z-7.537 I4.35 J0
X78.65 Y19 Z-7.741 I-4.35 J0
X87.35 Y19 Z-7.946 I4.35 J0
X78.65 Y19 Z-8.15 I-4.35 J0
X87.35 Y19 Z-8.354 I4.35 J0
X78.65 Y19 Z-8.559 I-4.35 J0
X87.35 Y19 Z-8.763 I4.35 J0
X78.65 Y19 Z-8.967 I-4.35 J0
X87.35 Y19 Z-9.171 I4.35 J0
X78.65 Y19 Z-9.376 I-4.35 J0
X87.35 Y19 Z-9.58 I4.35 J0
X78.65 Y19 Z-9.784 I-4.35 J0
X87.35 Y19 Z-9.989 I4.35 J0
X78.65 Y19 Z-10.193 I-4.35 J0
X87.35 Y19 Z-10.397 I4.35 J0
X78.65 Y19 Z-10.601 I-4.35 J0
X87.35 Y19 Z-10.806 I4.35 J0
X78.702 Y19.669 Z-11 I-4.35 J0
X87.298 Y18.331 I4.298 J-0.669
X78.702 Y19.669 I-4.298 J0.669
X78.952 Y19.326 I0.296 J-0.046
G1 X79.1 Y19.303
X79.229 Y19.283 Z-10.97
X79.332 Y19.267 Z-10.887
X79.389 Y19.258 Z-10.767
X79.397 Y19.257 Z-10.7
G0 Z5
Z15
X86.75 Y18.7
Z-9
G1 Z-10.7 F1206
G18 G2 X87.05 Z-11 I0.3 K0
G1 X87.2
G17 G3 X87.5 Y19 I0 J0.3
X78.5 Y19 I-4.5 J0
X87.5 Y19 I4.5 J0
X87.2 Y19.3 I-0.3 J0
G1 X87.05
G18 G3 X86.75 Z-10.7 I0 K0.3
G0 Z5
Z15
Y18.7
Z-9
G1 Z-10.7 F1206
G2 X87.05 Z-11 I0.3 K0
G1 X87.2
G17 G3 X87.5 Y19 I0 J0.3
X78.5 Y19 I-4.5 J0
X87.5 Y19 I4.5 J0
X87.2 Y19.3 I-0.3 J0
G1 X87.05
G18 G3 X86.75 Z-10.7 I0 K0.3
G0 Z15
G17
G90 G94 G21 G17
M5

G53 G0 Z0
G53 G0 X0 Y0
M5
M30
