(base-inch)
(T1 D=0.25 CR=0 - ZMIN=-0.165 - flat end mill)

(FluidNC config: arc_tol=0.002mm junc_dev=0.01mm min_seg=0.01mm)
(Ensure firmware arc_tolerance_mm and junction_deviation_mm match these values)
G90 G20 G17
G54
G53 G0 Z0
G90 G94
G17
G20
G90 G94 G20 G17
G53 G0 Z0

(01_linear_profile)
T1
S11999 M3
G4 P3.
G17 G90 G94
G54
G53 G0 Z0
G90 G0 X3.065 Y-0.16
Z0.6
G0 Z0.2
G1 Z0.0394 F33.15
Z-0.115
G19 G3 Y-0.135 Z-0.14 J0.025 K0 F99.46
G1 Y-0.11
G17 G3 X3.04 Y-0.085 I-0.025 J0
G1 X0.04
X-0.085
Y2.04
Y2.165
X3.04
X3.165
Y-0.085
X3.04
G3 X3.015 Y-0.11 I0 J-0.025
G1 Y-0.135
G19 G2 Y-0.16 Z-0.115 J0 K0.025
G0 Z0.6
G17
G90 G94 G20 G17

(02_arc_profile)
S5000 M3
G4 P3.
G53 G0 Z0
G90 G0 X1.8466 Y1.015
Z0.6
Z0.0387
G1 Z-0.015 F39.37
G18 G2 X1.8716 Z-0.04 I0.025 K0
G1 X1.8841
G17 G3 X1.9091 Y1.04 I0 J0.025
X1.1709 Y1.04 Z-0.0573 I-0.3691 J0
X1.9091 Y1.04 Z-0.0745 I0.3691 J0
X1.1709 Y1.04 Z-0.0918 I-0.3691 J0
X1.9091 Y1.04 Z-0.109 I0.3691 J0
X1.1709 Y1.04 Z-0.1263 I-0.3691 J0
X1.9091 Y1.04 Z-0.1435 I0.3691 J0
X1.1709 Y1.04 Z-0.1608 I-0.3691 J0
X1.2746 Y0.7835 Z-0.165 I0.3691 J0
X1.8054 Y1.2965 I0.2654 J0.2565
X1.2746 Y0.7835 I-0.2654 J-0.2565
X1.31 Y0.7829 I0.018 J0.0174
G1 X1.319 Y0.7915
X1.3271 Y0.7994 Z-0.1623
X1.3335 Y0.8056 Z-0.1547
X1.3367 Y0.8087 Z-0.1439
X1.337 Y0.8089 Z-0.14
G0 Z0.2
Z0.6
X1.8525 Y1.015
Z-0.0863
G1 Z-0.14 F39.37
G18 G2 X1.8775 Z-0.165 I0.025 K0
G1 X1.89
G17 G3 X1.915 Y1.04 I0 J0.025
X1.165 Y1.04 I-0.375 J0
X1.915 Y1.04 I0.375 J0
X1.89 Y1.065 I-0.025 J0
G1 X1.8775
G18 G3 X1.8525 Z-0.14 I0 K0.025
G0 Z0.2
Z0.6
Y1.015
Z-0.0863
G1 Z-0.14 F39.37
G2 X1.8775 Z-0.165 I0.025 K0
G1 X1.89
G17 G3 X1.915 Y1.04 I0 J0.025
X1.165 Y1.04 I-0.375 J0
X1.915 Y1.04 I0.375 J0
X1.89 Y1.065 I-0.025 J0
G1 X1.8775
G18 G3 X1.8525 Z-0.14 I0 K0.025
G0 Z0.6
G17

G53 G0 Z0
G53 G0 X0 Y0
M5
M30
