(no-filter)
(T1 D=3 CR=0 - ZMIN=-9 - flat end mill)

(FluidNC config: arc_tol=0.002mm junc_dev=0.01mm min_seg=0mm)
(Ensure firmware arc_tolerance_mm and junction_deviation_mm match these values)
G90 G21 G17
G54
G53 G0 Z0
G90 G94
G17
G21
G90 G94 G21 G17
G53 G0 Z0

(01_dense_spline_profile)
T1
S12000 M3
G4 P3.
G17 G90 G94
G54
G53 G0 Z0
G90 G0 X-1.4 Y26.549
Z15
G0 Z5
G1 Z0.6 F402
Z-2.7
G18 G2 X-1.1 Z-3 I0.3 K0 F1206
G1 X-0.8
G17 G3 X-0.5 Y26.849 I0 J0.3
G1 Y51
Y51.396
X-0.304 Y51.741
X-0.11 Y52.084
X-0.071 Y52.148
X0.122 Y52.452
X0.173 Y52.527
X0.365 Y52.792
G2 X0.432 Y52.878 I1.215 J-0.88
G1 X0.623 Y53.104
X0.666 Y53.156
X0.961 Y53.449
X1.292 Y53.711
X1.666 Y53.934
X2.086 Y54.102
X2.541 Y54.195
X2.865 Y54.198
X3.005 Y54.199
X3.322 Y54.143
X3.447 Y54.121
X3.745 Y54.014
X3.847 Y53.978
X4.119 Y53.834
X4.196 Y53.793
X4.444 Y53.622
X4.501 Y53.583
X4.729 Y53.393
G2 X4.807 Y53.322 I-0.96 J-1.152
G1 X4.981 Y53.155
X5.037 Y53.099
X5.21 Y52.915
X5.246 Y52.874
X5.418 Y52.676
X5.446 Y52.643
X5.788 Y52.227
X6.112 Y51.834
X6.246 Y51.682
X6.336 Y51.588
X6.344 Y51.595
X6.656 Y51.905
X7 Y52.256
X7.033 Y52.288
X7.209 Y52.458
X7.259 Y52.504
X7.436 Y52.659
G2 X7.515 Y52.724 I0.989 J-1.128
G1 X7.692 Y52.858
X7.749 Y52.902
X8.068 Y53.1
X8.443 Y53.271
X8.876 Y53.388
X9.349 Y53.422
X9.676 Y53.378
X9.82 Y53.359
X10.132 Y53.254
X10.249 Y53.214
X10.532 Y53.063
X10.618 Y53.017
X10.871 Y52.837
X10.929 Y52.795
X11.156 Y52.597
G2 X11.233 Y52.526 I-0.985 J-1.131
G1 X11.405 Y52.354
X11.452 Y52.304
X11.623 Y52.116
X11.655 Y52.079
X11.99 Y51.687
X12.223 Y51.422
X12.457 Y51.68
X12.797 Y52.064
X12.835 Y52.106
X13.008 Y52.287
X13.064 Y52.343
X13.238 Y52.507
G2 X13.325 Y52.582 I1.028 J-1.092
G1 X13.499 Y52.723
X13.562 Y52.773
X13.896 Y52.988
X14.292 Y53.168
X14.749 Y53.283
X15.235 Y53.304
X15.566 Y53.249
X15.704 Y53.225
X16.013 Y53.112
X16.12 Y53.072
X16.397 Y52.919
X16.473 Y52.878
X16.719 Y52.701
G2 X16.818 Y52.625 I-0.872 J-1.221
G1 X16.994 Y52.475
X17.057 Y52.419
X17.233 Y52.251
X17.27 Y52.215
X17.446 Y52.036
X17.459 Y52.024
X17.797 Y51.671
X17.895 Y51.574
X18.028 Y51.717
X18.359 Y52.088
X18.372 Y52.103
X18.544 Y52.29
X18.576 Y52.325
X18.749 Y52.502
X18.805 Y52.556
X18.978 Y52.716
G2 X19.063 Y52.789 I1.018 J-1.101
G1 X19.237 Y52.927
X19.296 Y52.974
X19.616 Y53.18
X19.986 Y53.356
X20.4 Y53.478
X20.707 Y53.514
X20.834 Y53.529
X21.143 Y53.512
X21.26 Y53.505
X21.556 Y53.442
X21.649 Y53.422
X21.922 Y53.327
X21.99 Y53.303
X22.24 Y53.187
G2 X22.331 Y53.142 I-0.629 J-1.362
G1 X22.516 Y53.04
X22.568 Y53.011
X22.755 Y52.899
X22.772 Y52.888
X23.128 Y52.668
X23.263 Y52.591
X23.366 Y52.538
X23.434 Y52.51
X23.439 Y52.508
X23.46 Y52.517
X23.537 Y52.555
X23.648 Y52.621
X23.787 Y52.713
X24.14 Y52.963
X24.158 Y52.975
X24.342 Y53.101
X24.392 Y53.134
X24.575 Y53.249
X24.66 Y53.299
X24.842 Y53.397
X24.905 Y53.431
X25.242 Y53.573
X25.63 Y53.68
X26.063 Y53.727
X26.515 Y53.695
X26.824 Y53.613
X26.947 Y53.581
X27.237 Y53.449
X27.333 Y53.406
X27.595 Y53.24
X27.664 Y53.195
X27.9 Y53.006
G2 X27.992 Y52.927 I-0.938 J-1.171
G1 X28.163 Y52.765
X28.222 Y52.706
X28.393 Y52.526
X28.429 Y52.486
X28.599 Y52.293
X28.617 Y52.272
X28.949 Y51.882
X29.094 Y51.716
X29.119 Y51.689
X29.153 Y51.723
X29.487 Y52.071
X29.506 Y52.09
X29.858 Y52.446
X29.929 Y52.512
X30.105 Y52.668
G2 X30.193 Y52.741 I0.995 J-1.123
G1 X30.37 Y52.875
X30.434 Y52.924
X30.773 Y53.127
X31.176 Y53.296
X31.643 Y53.396
X32.138 Y53.397
X32.47 Y53.325
X32.612 Y53.294
X32.919 Y53.162
X33.026 Y53.116
X33.298 Y52.945
X33.373 Y52.897
X33.614 Y52.703
G2 X33.71 Y52.619 I-0.942 J-1.167
G1 X33.882 Y52.454
X33.942 Y52.392
X34.114 Y52.208
X34.159 Y52.157
X34.5 Y51.755
X34.771 Y51.437
X34.789 Y51.457
X34.947 Y51.636
X35.291 Y52.029
X35.325 Y52.066
X35.498 Y52.251
X35.55 Y52.304
X35.723 Y52.472
G2 X35.806 Y52.546 I1.043 J-1.078
G1 X35.981 Y52.691
X36.041 Y52.741
X36.368 Y52.961
X36.759 Y53.149
X37.213 Y53.276
X37.702 Y53.308
X38.036 Y53.259
X38.178 Y53.238
X38.49 Y53.129
X38.602 Y53.09
X38.883 Y52.938
X38.962 Y52.896
X39.211 Y52.72
G2 X39.314 Y52.641 I-0.863 J-1.227
G1 X39.49 Y52.493
X39.556 Y52.434
X39.732 Y52.267
X39.77 Y52.23
X39.946 Y52.05
X39.961 Y52.035
X40.301 Y51.68
X40.404 Y51.577
X40.527 Y51.71
X40.858 Y52.082
X40.87 Y52.095
X41.042 Y52.283
X41.075 Y52.318
X41.247 Y52.496
X41.302 Y52.549
X41.475 Y52.71
G2 X41.559 Y52.782 I1.021 J-1.099
G1 X41.733 Y52.922
X41.792 Y52.969
X42.112 Y53.176
X42.48 Y53.353
X42.894 Y53.477
X43.202 Y53.514
X43.33 Y53.529
X43.639 Y53.513
X43.755 Y53.507
X44.051 Y53.445
X44.146 Y53.425
X44.42 Y53.329
X44.489 Y53.306
X44.739 Y53.19
G2 X44.83 Y53.144 I-0.628 J-1.362
G1 X45.016 Y53.043
X45.068 Y53.013
X45.255 Y52.901
X45.273 Y52.89
X45.629 Y52.669
X45.764 Y52.592
X45.869 Y52.538
X45.936 Y52.51
X45.941 Y52.509
X45.961 Y52.516
X46.038 Y52.555
X46.148 Y52.621
X46.287 Y52.712
X46.64 Y52.962
X46.657 Y52.974
X46.841 Y53.1
X46.891 Y53.133
X47.074 Y53.248
X47.16 Y53.298
X47.341 Y53.396
X47.405 Y53.43
X47.74 Y53.572
X48.129 Y53.679
X48.563 Y53.727
X49.014 Y53.695
X49.323 Y53.614
X49.446 Y53.581
X49.736 Y53.45
X49.832 Y53.406
X50.094 Y53.24
X50.164 Y53.196
X50.4 Y53.007
G2 X50.491 Y52.928 I-0.938 J-1.171
G1 X50.662 Y52.766
X50.723 Y52.706
X50.893 Y52.526
X50.929 Y52.487
X51.099 Y52.294
X51.118 Y52.273
X51.449 Y51.882
X51.594 Y51.716
X51.619 Y51.689
X51.653 Y51.722
X51.987 Y52.071
X52.006 Y52.09
X52.358 Y52.446
X52.429 Y52.512
X52.605 Y52.668
G2 X52.693 Y52.74 I0.995 J-1.123
G1 X52.869 Y52.874
X52.934 Y52.923
X53.273 Y53.127
X53.676 Y53.296
X54.142 Y53.396
X54.638 Y53.397
X54.971 Y53.325
X55.112 Y53.294
X55.419 Y53.162
X55.526 Y53.116
X55.798 Y52.945
X55.873 Y52.898
X56.114 Y52.703
G2 X56.21 Y52.619 I-0.942 J-1.167
G1 X56.382 Y52.454
X56.442 Y52.392
X56.614 Y52.208
X56.659 Y52.157
X57 Y51.755
X57.271 Y51.437
X57.289 Y51.457
X57.447 Y51.636
X57.791 Y52.029
X57.825 Y52.066
X57.998 Y52.251
X58.05 Y52.304
X58.223 Y52.472
G2 X58.306 Y52.546 I1.043 J-1.078
G1 X58.481 Y52.691
X58.541 Y52.741
X58.868 Y52.961
X59.259 Y53.149
X59.712 Y53.276
X60.202 Y53.308
X60.536 Y53.259
X60.678 Y53.238
X60.99 Y53.129
X61.102 Y53.09
X61.383 Y52.938
X61.461 Y52.896
X61.711 Y52.72
G2 X61.814 Y52.641 I-0.863 J-1.227
G1 X61.99 Y52.493
X62.056 Y52.434
X62.232 Y52.267
X62.27 Y52.23
X62.446 Y52.051
X62.461 Y52.035
X62.801 Y51.68
X62.904 Y51.577
X63.027 Y51.71
X63.358 Y52.081
X63.37 Y52.094
X63.542 Y52.283
X63.575 Y52.318
X63.747 Y52.495
X63.801 Y52.548
X63.975 Y52.709
G2 X64.059 Y52.782 I1.022 J-1.098
G1 X64.233 Y52.922
X64.291 Y52.968
X64.611 Y53.176
X64.98 Y53.352
X65.393 Y53.477
X65.7 Y53.514
X65.828 Y53.529
X66.137 Y53.514
X66.255 Y53.508
X66.551 Y53.445
X66.645 Y53.426
X66.919 Y53.33
X66.988 Y53.307
X67.239 Y53.191
G2 X67.329 Y53.146 I-0.628 J-1.362
G1 X67.515 Y53.044
X67.568 Y53.014
X67.755 Y52.902
X67.773 Y52.891
X68.129 Y52.671
X68.264 Y52.592
X68.369 Y52.539
X68.437 Y52.51
X68.443 Y52.509
X68.463 Y52.516
X68.539 Y52.554
X68.649 Y52.62
X68.788 Y52.711
X69.141 Y52.961
X69.157 Y52.972
X69.341 Y53.098
X69.391 Y53.13
X69.574 Y53.245
X69.659 Y53.295
X69.841 Y53.393
X69.903 Y53.427
X70.238 Y53.569
X70.625 Y53.677
X71.057 Y53.726
X71.508 Y53.696
X71.818 Y53.615
X71.941 Y53.584
X72.23 Y53.454
X72.327 Y53.411
X72.59 Y53.245
X72.66 Y53.201
X72.896 Y53.013
G2 X72.988 Y52.933 I-0.934 J-1.174
G1 X73.159 Y52.773
X73.22 Y52.712
X73.391 Y52.533
X73.427 Y52.493
X73.597 Y52.301
X73.616 Y52.279
X73.949 Y51.889
X74.094 Y51.722
X74.128 Y51.686
X74.157 Y51.714
X74.49 Y52.06
X74.506 Y52.077
X74.859 Y52.432
X74.925 Y52.495
X75.102 Y52.652
G2 X75.187 Y52.722 I0.998 J-1.12
G1 X75.363 Y52.858
X75.425 Y52.905
X75.758 Y53.11
X76.153 Y53.281
X76.611 Y53.389
X77.102 Y53.401
X77.435 Y53.337
X77.578 Y53.31
X77.887 Y53.185
X77.998 Y53.141
X78.273 Y52.975
X78.351 Y52.928
X78.595 Y52.737
X78.647 Y52.697
X78.867 Y52.492
X78.931 Y52.428
X79.103 Y52.247
X79.152 Y52.192
X79.493 Y51.796
X79.499 Y51.79
X79.816 Y51.416
X79.959 Y51.573
X80.298 Y51.956
X80.319 Y51.98
X80.492 Y52.167
X80.532 Y52.209
X80.706 Y52.383
X80.772 Y52.445
X80.946 Y52.599
G2 X81.045 Y52.681 I0.996 J-1.122
G1 X81.22 Y52.811
X81.29 Y52.863
X81.64 Y53.064
X82.048 Y53.224
X82.506 Y53.312
X82.832 Y53.309
X82.979 Y53.308
X83.298 Y53.241
X83.425 Y53.215
X83.722 Y53.098
X83.819 Y53.059
X84.086 Y52.908
X84.155 Y52.869
X84.396 Y52.696
G2 X84.487 Y52.625 I-0.873 J-1.219
G1 X84.663 Y52.477
X84.723 Y52.425
X84.899 Y52.26
X84.94 Y52.22
X85.616 Y51.537
X85.687 Y51.473
X85.743 Y51.528
X85.871 Y51.665
X86.191 Y52.034
X86.533 Y52.436
X86.556 Y52.463
X86.73 Y52.658
X86.763 Y52.694
X86.939 Y52.878
X86.989 Y52.928
X87.165 Y53.097
X87.236 Y53.161
X87.413 Y53.309
G2 X87.512 Y53.385 I0.965 J-1.148
G1 X87.69 Y53.512
X87.755 Y53.558
X88.089 Y53.744
X88.468 Y53.896
X88.889 Y53.993
X89.338 Y54.017
X89.658 Y53.976
X89.789 Y53.959
X90.102 Y53.862
X90.217 Y53.826
X90.513 Y53.678
X90.605 Y53.631
X90.88 Y53.443
X90.953 Y53.393
X91.209 Y53.169
X91.264 Y53.121
X91.506 Y52.864
G2 X91.583 Y52.775 I-1.092 J-1.029
G1 X91.777 Y52.534
X91.836 Y52.455
X92.031 Y52.177
X92.077 Y52.109
X92.5 Y51.429
Y-0.5
X-0.5
Y26.849
G3 X-0.8 Y27.149 I-0.3 J0
G1 X-1.1
G18 G3 X-1.4 Z-2.7 I0 K0.3
G0 Z15
G17
G90 G94 G21 G17

(02_circle_profile)
G53 G0 Z0
G90 G0 X74.6 Y15.7
Z15
Z1
G1 Z-0.7 F1206
G18 G2 X74.9 Z-1 I0.3 K0
G1 X75.05
G17 G3 X75.35 Y16 I0 J0.3
X66.65 Y16 Z-1.204 I-4.35 J0
X75.35 Y16 Z-1.409 I4.35 J0
X66.65 Y16 Z-1.613 I-4.35 J0
X75.35 Y16 Z-1.817 I4.35 J0
X66.65 Y16 Z-2.021 I-4.35 J0
X75.35 Y16 Z-2.226 I4.35 J0
X66.65 Y16 Z-2.43 I-4.35 J0
X75.35 Y16 Z-2.634 I4.35 J0
X66.65 Y16 Z-2.839 I-4.35 J0
X75.35 Y16 Z-3.043 I4.35 J0
X66.65 Y16 Z-3.247 I-4.35 J0
X75.35 Y16 Z-3.451 I4.35 J0
X66.65 Y16 Z-3.656 I-4.35 J0
X75.35 Y16 Z-3.86 I4.35 J0
X66.65 Y16 Z-4.064 I-4.35 J0
X75.35 Y16 Z-4.269 I4.35 J0
X66.65 Y16 Z-4.473 I-4.35 J0
X75.35 Y16 Z-4.677 I4.35 J0
X66.65 Y16 Z-4.881 I-4.35 J0
X75.35 Y16 Z-5.086 I4.35 J0
X66.65 Y16 Z-5.29 I-4.35 J0
X75.35 Y16 Z-5.494 I4.35 J0
X66.65 Y16 Z-5.699 I-4.35 J0
X75.35 Y16 Z-5.903 I4.35 J0
X66.65 Y16 Z-6.107 I-4.35 J0
X75.35 Y16 Z-6.311 I4.35 J0
X66.65 Y16 Z-6.516 I-4.35 J0
X75.35 Y16 Z-6.72 I4.35 J0
X66.65 Y16 Z-6.924 I-4.35 J0
X75.35 Y16 Z-7.129 I4.35 J0
X66.65 Y16 Z-7.333 I-4.35 J0
X75.35 Y16 Z-7.537 I4.35 J0
X66.65 Y16 Z-7.741 I-4.35 J0
X75.35 Y16 Z-7.946 I4.35 J0
X66.65 Y16 Z-8.15 I-4.35 J0
X75.35 Y16 Z-8.354 I4.35 J0
X66.65 Y16 Z-8.559 I-4.35 J0
X75.35 Y16 Z-8.763 I4.35 J0
X66.65 Y16 Z-8.967 I-4.35 J0
X67.193 Y13.896 Z-9 I4.35 J0
X74.807 Y18.104 I3.807 J2.104
X67.193 Y13.896 I-3.807 J-2.104
X67.6 Y13.779 I0.263 J0.145
G1 X67.732 Y13.851
X67.79 Y13.883 Z-8.992
X67.845 Y13.914 Z-8.97
X67.895 Y13.942 Z-8.935
X67.937 Y13.965 Z-8.887
X67.968 Y13.982 Z-8.83
X67.988 Y13.993 Z-8.767
X67.994 Y13.996 Z-8.7
G0 Z5
Z15
X74.75 Y15.7
Z-7
G1 Z-8.7 F1206
G18 G2 X75.05 Z-9 I0.3 K0
G1 X75.2
G17 G3 X75.5 Y16 I0 J0.3
X66.5 Y16 I-4.5 J0
X75.5 Y16 I4.5 J0
X75.2 Y16.3 I-0.3 J0
G1 X75.05
G18 G3 X74.75 Z-8.7 I0 K0.3
G0 Z5
Z15
Y15.7
Z-7
G1 Z-8.7 F1206
G2 X75.05 Z-9 I0.3 K0
G1 X75.2
G17 G3 X75.5 Y16 I0 J0.3
X66.5 Y16 I-4.5 J0
X75.5 Y16 I4.5 J0
X75.2 Y16.3 I-0.3 J0
G1 X75.05
G18 G3 X74.75 Z-8.7 I0 K0.3
G0 Z15
G17

G53 G0 Z0
G53 G0 X0 Y0
M5
M30
