(manual-toolchange-default)
(T1 D=6 CR=0 - ZMIN=-4 - flat end mill)
(T2 D=3 CR=0 - ZMIN=-11 - flat end mill)

(FluidNC config: arc_tol=0.002mm junc_dev=0.01mm min_seg=0.01mm)
(Ensure firmware arc_tolerance_mm and junction_deviation_mm match these values)
G90 G21 G17
G54
G53 G0 Z0
G90 G94
G17
G21
G90 G94 G21 G17
G53 G0 Z0

(01_pocket_t1)
T1
S5000 M3
G4 P3.
G17 G90 G94
G54
M8
G53 G0 Z0
G90 G0 X101.934 Y65.004
Z15
G0 Z5
G1 Z1 F796.1
Z-3.4 F2388.4
X101.941 Y65.001 Z-3.494
X101.961 Y64.993 Z-3.585
X101.994 Y64.979 Z-3.672
X102.04 Y64.961 Z-3.753
X102.096 Y64.937 Z-3.824
X102.163 Y64.91 Z-3.885
X102.237 Y64.88 Z-3.935
X102.317 Y64.846 Z-3.971
X102.402 Y64.812 Z-3.993
X102.489 Y64.776 Z-4
X102.544 Y64.753
G2 X104.752 Y62.546 I-1.544 J-3.753
G1 X104.761 Y62.524
X104.797 Y62.438 Z-3.993
X104.832 Y62.353 Z-3.971
X104.865 Y62.273 Z-3.935
X104.896 Y62.198 Z-3.885
X104.923 Y62.132 Z-3.824
X104.946 Y62.076 Z-3.753
X104.965 Y62.03 Z-3.672
X104.979 Y61.997 Z-3.585
X104.987 Y61.977 Z-3.494
X104.99 Y61.97 Z-3.4
G0 Z5
X105.004 Y0.066
G1 Z1 F796.1
Z-3.4 F2388.4
X105.001 Y0.059 Z-3.494
X104.993 Y0.039 Z-3.585
X104.979 Y0.006 Z-3.672
X104.961 Y-0.04 Z-3.753
X104.937 Y-0.096 Z-3.824
X104.91 Y-0.163 Z-3.885
X104.88 Y-0.237 Z-3.935
X104.846 Y-0.317 Z-3.971
X104.812 Y-0.402 Z-3.993
X104.776 Y-0.489 Z-4
X104.753 Y-0.544
G2 X102.546 Y-2.752 I-3.753 J1.544
G1 X102.524 Y-2.761
X102.438 Y-2.797 Z-3.993
X102.353 Y-2.832 Z-3.971
X102.273 Y-2.865 Z-3.935
X102.198 Y-2.896 Z-3.885
X102.132 Y-2.923 Z-3.824
X102.076 Y-2.946 Z-3.753
X102.03 Y-2.965 Z-3.672
X101.997 Y-2.979 Z-3.585
X101.977 Y-2.987 Z-3.494
X101.97 Y-2.99 Z-3.4
G0 Z5
X0.066 Y-3.004
G1 Z1 F796.1
Z-3.4 F2388.4
X0.059 Y-3.001 Z-3.494
X0.039 Y-2.993 Z-3.585
X0.006 Y-2.979 Z-3.672
X-0.04 Y-2.961 Z-3.753
X-0.096 Y-2.937 Z-3.824
X-0.163 Y-2.91 Z-3.885
X-0.237 Y-2.88 Z-3.935
X-0.317 Y-2.846 Z-3.971
X-0.402 Y-2.812 Z-3.993
X-0.489 Y-2.776 Z-4
X-0.544 Y-2.753
G2 X-2.752 Y-0.546 I1.544 J3.753
G1 X-2.761 Y-0.524
X-2.797 Y-0.438 Z-3.993
X-2.832 Y-0.353 Z-3.971
X-2.865 Y-0.273 Z-3.935
X-2.896 Y-0.198 Z-3.885
X-2.923 Y-0.132 Z-3.824
X-2.946 Y-0.076 Z-3.753
X-2.965 Y-0.03 Z-3.672
X-2.979 Y0.003 Z-3.585
X-2.987 Y0.023 Z-3.494
X-2.99 Y0.03 Z-3.4
G0 Z5
X-3.004 Y61.934
G1 Z1 F796.1
Z-3.4 F2388.4
X-3.001 Y61.941 Z-3.494
X-2.993 Y61.961 Z-3.585
X-2.979 Y61.994 Z-3.672
X-2.961 Y62.04 Z-3.753
X-2.937 Y62.096 Z-3.824
X-2.91 Y62.163 Z-3.885
X-2.88 Y62.237 Z-3.935
X-2.846 Y62.317 Z-3.971
X-2.812 Y62.402 Z-3.993
X-2.776 Y62.489 Z-4
X-2.753 Y62.544
G2 X-0.546 Y64.752 I3.753 J-1.544
X0.471 Y64.472 I0.328 J-0.796
G3 X1.415 Y64 I0.944 J0.707
G1 X101
G2 X104 Y61 I0 J-3
G1 Y1
G2 X101 Y-2 I-3 J0
G1 X1
G2 X-2 Y1 I0 J3
G1 Y61
G2 X1 Y64 I3 J0
G1 X1.415
G3 X1.6 Y64.029 I0 J0.6
G1 X4.275 Y64.898
X4.365 Y64.927 Z-3.993
X4.452 Y64.956 Z-3.971
X4.534 Y64.983 Z-3.935
X4.611 Y65.007 Z-3.885
X4.679 Y65.03 Z-3.824
X4.737 Y65.048 Z-3.753
X4.784 Y65.064 Z-3.672
X4.818 Y65.075 Z-3.585
X4.839 Y65.082 Z-3.494
X4.846 Y65.084 Z-3.4
G0 Z15
M9
G90 G94 G21 G17
M5
G53 G0 Z0

(02_bore_t2)
T2
(CHANGE TO T2)
S8000 M3
G4 P3.
G17 G90 G94
G54
G53 G0 Z0
G90 G0 X22.6 Y18.7
Z15
G0 Z-2
G1 Z-3.7 F417.8
G18 G2 X22.9 Z-4 I0.3 K0
G1 X23.05
G17 G3 X23.35 Y19 I0 J0.3
X14.65 Y19 Z-4.204 I-4.35 J0
X23.35 Y19 Z-4.409 I4.35 J0
X14.65 Y19 Z-4.613 I-4.35 J0
X23.35 Y19 Z-4.817 I4.35 J0
X14.65 Y19 Z-5.021 I-4.35 J0
X23.35 Y19 Z-5.226 I4.35 J0
X14.65 Y19 Z-5.43 I-4.35 J0
X23.35 Y19 Z-5.634 I4.35 J0
X14.65 Y19 Z-5.839 I-4.35 J0
X23.35 Y19 Z-6.043 I4.35 J0
X14.65 Y19 Z-6.247 I-4.35 J0
X23.35 Y19 Z-6.451 I4.35 J0
X14.65 Y19 Z-6.656 I-4.35 J0
X23.35 Y19 Z-6.86 I4.35 J0
X14.65 Y19 Z-7.064 I-4.35 J0
X23.35 Y19 Z-7.269 I4.35 J0
X14.65 Y19 Z-7.473 I-4.35 J0
X23.35 Y19 Z-7.677 I4.35 J0
X14.65 Y19 Z-7.881 I-4.35 J0
X23.35 Y19 Z-8.086 I4.35 J0
X14.65 Y19 Z-8.29 I-4.35 J0
X23.35 Y19 Z-8.494 I4.35 J0
X14.65 Y19 Z-8.699 I-4.35 J0
X23.35 Y19 Z-8.903 I4.35 J0
X14.65 Y19 Z-9.107 I-4.35 J0
X23.35 Y19 Z-9.311 I4.35 J0
X14.65 Y19 Z-9.516 I-4.35 J0
X23.35 Y19 Z-9.72 I4.35 J0
X14.65 Y19 Z-9.924 I-4.35 J0
X23.35 Y19 Z-10.129 I4.35 J0
X14.65 Y19 Z-10.333 I-4.35 J0
X23.35 Y19 Z-10.537 I4.35 J0
X14.65 Y19 Z-10.741 I-4.35 J0
X23.35 Y19 Z-10.946 I4.35 J0
X21.922 Y22.223 Z-11 I-4.35 J0
X16.078 Y15.777 I-2.922 J-3.223
X21.922 Y22.223 I2.922 J3.223
X21.498 Y22.202 I-0.201 J-0.222
G1 X21.397 Y22.091
X21.352 Y22.042 Z-10.992
X21.31 Y21.995 Z-10.97
X21.271 Y21.952 Z-10.935
X21.239 Y21.917 Z-10.887
X21.215 Y21.891 Z-10.83
X21.201 Y21.874 Z-10.767
X21.196 Y21.869 Z-10.7
G0 Z5
Z15
X22.75 Y18.7
Z-9
G1 Z-10.7 F417.8
G18 G2 X23.05 Z-11 I0.3 K0
G1 X23.2
G17 G3 X23.5 Y19 I0 J0.3
X14.5 Y19 I-4.5 J0
X23.5 Y19 I4.5 J0
X23.2 Y19.3 I-0.3 J0
G1 X23.05
G18 G3 X22.75 Z-10.7 I0 K0.3
G0 Z5
Z15
Y18.7
Z-9
G1 Z-10.7 F417.8
G2 X23.05 Z-11 I0.3 K0
G1 X23.2
G17 G3 X23.5 Y19 I0 J0.3
X14.5 Y19 I-4.5 J0
X23.5 Y19 I4.5 J0
X23.2 Y19.3 I-0.3 J0
G1 X23.05
G18 G3 X22.75 Z-10.7 I0 K0.3
G0 Z15
G17
G90 G94 G21 G17
M5
G53 G0 Z0

(03_outer_profile_t1)
T1
(CHANGE TO T1)
S5000 M3
G4 P3.
G17 G90 G94
G54
M8
G53 G0 Z0
G90 G0 X0.4 Y65.8
Z15
G0 Z5
G1 Z1 F796.1
Z-2.4
G19 G2 Y65.2 Z-3 J-0.6 K0 F2388.4
G1 Y64.6
G17 G3 X1 Y64 I0.6 J0
G1 X101
X104
Y-2
X-2
Y64
X1
G3 X1.6 Y64.6 I0 J0.6
G1 Y65.2
G19 G3 Y65.8 Z-2.4 J0 K0.6
G0 Z15
G17

M9
G53 G0 Z0
G53 G0 X0 Y0
M5
M30
